Adwaita++/actions/22/window-previous.svg

<svg height="22" viewBox="0 0 22 22" width="22" xmlns="http://www.w3.org/2000/svg">
  <path d="m1.9980469 1s-.0796875.0044375-.1796875.0234375c-.20412.03015-.3586863.103495-.4726563.203125-.022.01694-.0434531.0350675-.0644531.0546875-.0196.02097-.0377875.0423831-.0546875.0644531-.09963.11398-.173025.2685363-.203125.4726563-.0194.10541-.0234375.1816406-.0234375.1816406v12c0 1 1 1 1 1h12s1 0 1-1v-12s-.004037-.0762306-.023438-.1816406c-.03015-.20412-.103524-.3586863-.203124-.4726563-.017001-.02207-.035088-.0434831-.054688-.0644531-.0209-.01962-.042353-.0377475-.064453-.0546875-.11397-.09963-.268536-.172975-.472656-.203125-.10544-.01934-.181641-.0234375-.181641-.0234375h-.001953zm1.0019531 5h10v7h-10zm5 1-3 2.5 3 2.5v-2h3v-1h-3z" fill="#444" transform="translate(3 3)"/>
</svg>

<svg xmlns="http://www.w3.org/2000/svg" width="22" height="22" viewBox="0 0 22 22">
 <defs>
  <style id="current-color-scheme" type="text/css">
   .ColorScheme-Text { color:#444444; } .ColorScheme-Highlight { color:#4285f4; }
  </style>
 </defs>
 <path style="fill:currentColor" class="ColorScheme-Text" d="M 1.9980469 1 C 1.9980469 1 1.9183594 1.0044375 1.8183594 1.0234375 C 1.6142394 1.0535875 1.4596731 1.1269325 1.3457031 1.2265625 C 1.3237031 1.2435025 1.30225 1.26163 1.28125 1.28125 C 1.26165 1.30222 1.2434625 1.3236331 1.2265625 1.3457031 C 1.1269325 1.4596831 1.0535375 1.6142394 1.0234375 1.8183594 C 1.0040375 1.9237694 1 2 1 2 L 1 14 C 1 15 2 15 2 15 L 14 15 C 14 15 15 15 15 14 L 15 2 C 15 2 14.995963 1.9237694 14.976562 1.8183594 C 14.946412 1.6142394 14.873038 1.4596731 14.773438 1.3457031 C 14.756437 1.3236331 14.73835 1.30222 14.71875 1.28125 C 14.69785 1.26163 14.676397 1.2435025 14.654297 1.2265625 C 14.540327 1.1269325 14.385761 1.0535875 14.181641 1.0234375 C 14.076201 1.0040975 14 1 14 1 L 13.998047 1 L 1.9980469 1 z M 3 6 L 13 6 L 13 13 L 3 13 L 3 6 z M 8 7 L 5 9.5 L 8 12 L 8 10 L 11 10 L 11 9 L 8 9 L 8 7 z" transform="translate(3 3)"/>
</svg>
